public/img/svg/mortar_pin_blue.svg

<?xml version="1.0" standalone="no"?><!-- Generator: Gravit.io --><svg xmlns="http://www.w3.org/2000/svg" xmlns:xlink="http://www.w3.org/1999/xlink" style="isolation:isolate" viewBox="0 0 24 24" width="24" height="24"><defs><clipPath id="_clipPath_CKKZlIfKojRmDw4lRcrNhftrU1kOw2jX"><rect width="24" height="24"/></clipPath></defs><g clip-path="url(#_clipPath_CKKZlIfKojRmDw4lRcrNhftrU1kOw2jX)"><path d=" M 14 2 C 14 3.104 13.104 4 12 4 C 10.896 4 10 3.104 10 2 C 10 0.896 10.896 0 12 0 C 13.104 0 14 0.896 14 2 Z " fill="rgb(0,0,0)" fill-opacity="0.33"/><path d=" M 9.704 4.296 L 12 2 L 14.296 4.296 C 18.153 5.312 21 8.826 21 13 C 21 17.967 16.967 22 12 22 C 7.033 22 3 17.967 3 13 C 3 8.826 5.847 5.312 9.704 4.296 Z " fill-rule="evenodd" fill="rgb(33,150,243)"/><path d=" M 6.256 17 L 7 17 L 10.177 13.823 L 10.177 13.823 C 10.063 13.572 10 13.293 10 13 C 10 12.189 10.483 11.491 11.177 11.177 L 9 9 L 8 9 L 8 8 L 9.564 6.436 C 10.022 6.266 10.502 6.142 11 6.071 L 11 7 L 18.773 14.773 C 18.448 16.017 17.789 17.127 16.897 18 L 16 18 L 16 17 L 17 17 L 13.823 13.823 C 13.509 14.517 12.811 15 12 15 C 11.707 15 11.428 14.937 11.177 14.823 L 9 17 L 10 17 L 10 18 L 7.103 18 C 6.791 17.694 6.507 17.359 6.256 17 Z  M 11 13 C 11 12.448 11.448 12 12 12 C 12.552 12 13 12.448 13 13 C 13 13.552 12.552 14 12 14 C 11.448 14 11 13.552 11 13 L 11 13 Z " fill-rule="evenodd" fill="rgb(255,255,255)"/></g></svg>

<svg xmlns="http://www.w3.org/2000/svg" style="isolation:isolate" width="24" height="24"><defs><clipPath id="a"><path d="M0 0h24v24H0z"/></clipPath></defs><g clip-path="url(#a)"><path d="M14 2a2 2 0 1 1-4 0 2 2 0 0 1 4 0z" fill-opacity=".33"/><path d="M9.7 4.3L12 2l2.3 2.3a9 9 0 1 1-4.6 0z" fill-rule="evenodd" fill="#2196F3"/><path d="M6.26 17H7l3.18-3.18a2 2 0 0 1 1-2.65L9 9H8V8l1.56-1.56c.46-.17.94-.3 1.44-.37V7l7.77 7.77A6.99 6.99 0 0 1 16.9 18H16v-1h1l-3.18-3.18a2 2 0 0 1-2.64 1L9 17h1v1H7.1a7.1 7.1 0 0 1-.84-1zM11 13a1 1 0 1 1 2 0 1 1 0 0 1-2 0z" fill-rule="evenodd" fill="#FFF"/></g></svg>
